!!!COM: Palestrina, Giovanni Perluigi da
!!!OPR: In duplicibus minoribus (II)
!!!OTL: Sanctus
**kern	**kern	**kern	**kern	**kern
*Ibass	*Itenor	*Itenor	*Icalto	*Icant
!Bassus	!Tenor 2	!Tenor 1	!Altus	!Cantus
*clefF4	*clefGv2	*clefGv2	*clefG2	*clefG2
*k[]	*k[]	*k[]	*k[]	*k[]
*E:phr	*E:phr	*E:phr	*E:phr	*E:phr
*M4/2	*M4/2	*M4/2	*M4/2	*M4/2
=1	=1	=1	=1	=1
0r	0r	0r	1B	0r
.	.	.	1d	.
=2	=2	=2	=2	=2
0r	1E	0r	2.e	0r
.	.	.	4d	.
.	1G	.	2B	.
.	.	.	2d	.
=3	=3	=3	=3	=3
0r	2.A	0r	1.c	1e
.	4G	.	.	.
.	2E	.	.	1g
.	2G	.	2B	.
=4	=4	=4	=4	=4
0r	2.F	0r	2c	2.a
.	.	.	2.d	.
.	4E	.	.	4g
.	2C	.	.	2e
.	.	.	4c	.
.	2E	.	[2c	2g
=5	=5	=5	=5	=5
1r	1D	0r	2c]	1f
.	.	.	2B	.
1E	2C	.	2c	2e
.	[2c	.	2e	[2g
=6	=6	=6	=6	=6
1G	2c]	0r	1d	4g]
.	.	.	.	4f
.	2B	.	.	4d
.	.	.	.	4e
2.A	4A	.	1c	2f
.	4B	.	.	.
.	4c	.	.	4e
4G	4d	.	.	4f
=7	=7	=7	=7	=7
2E	2e	0r	1B	4g
.	.	.	.	4a
2G	2.d	.	.	2.b
1F	.	.	1d	.
.	4c	.	.	4a
.	2A	.	.	[2a
=8	=8	=8	=8	=8
1E	1B	1r	[0e	2a]
.	.	.	.	2g
4AA	1A	1E	.	1cc
4BB	.	.	.	.
4C	.	.	.	.
4D	.	.	.	.
=9	=9	=9	=9	=9
1E	2r	1G	1e]	1b
.	2.e	.	.	.
1AA	.	2.A	2c	1a
.	4d	.	.	.
.	[2c	.	[2f	.
.	.	4G	.	.
=10	=10	=10	=10	=10
1C	2c]	2E	4f]	1r
.	.	.	4e	.
.	2B	2G	1e	.
1D	[1A	1F	.	1a
.	.	.	2d	.
=11	=11	=11	=11	=11
0AA	1A]	[0E	[0e	2.cc
.	.	.	.	4b
.	1c	.	.	1a
=12	=12	=12	=12	=12
[0E	[0B	1E_	1e_	[0g#
.	.	1E_	1e_	.
=13	=13	=13	=13	=13
0E]	0B]	0E]	0e]	0g#]
==	==	==	==	==
*-	*-	*-	*-	*-
!!!CDT: 1525/^1526/-1594/2/2
!!!OCY: Italia
!!!AGN: Mass (Paraphrase)
!!!AST: renaissance, vocal
!!!ASW: Gregorian Mass
!!!PWK: Masses, Book Mantuan I
!!!RNB: Cadence finals: A
!!!YOR: Le Opere Complete, v. 18, p. 1
!!!YOO: Rome, Italy: Fratelli Scalera
!!!END: 1992//
!!!EED: John Miller
!!!YEC: Copyright 2000, John Miller
!!!YEN: United States of America
!!!YEM: Rights to all derivative electronic formats reserved.
!!!YEM: Refer to licensing agreement for further details.
!!!YEM: This file must be accompanied by the licensing agreement.
!!!YEM: A copy of the licensing agreement may be found at http://www.music-cog.ohio-state.edu/HumdrumDatabases/Palestrina/license.txt
!!!EMD: converted to Humdrum by Bret Aarden
